svg/待审核.svg

<svg width="180" height="180" viewBox="0 0 180 180" fill="none" xmlns="http://www.w3.org/2000/svg"><path d="M90 163.5C131.421 163.5 165 129.921 165 88.5C165 47.0786 131.421 13.5 90 13.5C48.5786 13.5 15 47.0786 15 88.5C15 129.921 48.5786 163.5 90 163.5Z" fill="#F5F5F4"/><path d="M92.3057 51.5C88.955 56.5055 87 62.5242 87 69C87 86.397 101.103 100.5 118.5 100.5C125.864 100.5 132.636 97.972 138 93.7383V161.5C138 164.261 135.761 166.5 133 166.5H47C44.2386 166.5 42 164.261 42 161.5V56.5C42 53.7386 44.2386 51.5 47 51.5H92.3057Z" fill="white"/><path d="M115.55 59.4147L115.61 71.5843C115.613 72.1346 116.059 72.5793 116.61 72.5794L128.849 72.5796" stroke="#D9D9D9" stroke-width="5" stroke-linecap="round"/><circle cx="119" cy="68.5" r="24.5" stroke="#EAEAEA" stroke-width="5"/><path d="M80 110.5H54C52.3431 110.5 51 109.157 51 107.5C51 105.843 52.3431 104.5 54 104.5H80C81.6569 104.5 83 105.843 83 107.5C83 109.157 81.6569 110.5 80 110.5Z" fill="#D6D3D1"/><path d="M106 136.5H54C52.3431 136.5 51 135.157 51 133.5C51 131.843 52.3431 130.5 54 130.5H106C107.657 130.5 109 131.843 109 133.5C109 135.157 107.657 136.5 106 136.5Z" fill="#D6D3D1"/><path d="M93.6 123.5H53.4C52.0745 123.5 51 122.157 51 120.5C51 118.843 52.0745 117.5 53.4 117.5H93.6C94.9255 117.5 96 118.843 96 120.5C96 122.157 94.9255 123.5 93.6 123.5Z" fill="#ECECEC"/></svg>

<svg fill="none" viewBox="0 0 180 180"><path fill="#F5F5F4" d="M90 163.5c41.421 0 75-33.579 75-75s-33.579-75-75-75-75 33.579-75 75 33.579 75 75 75"/><path fill="white" d="M92.306 51.5A31.35 31.35 0 0 0 87 69c0 17.397 14.103 31.5 31.5 31.5a31.36 31.36 0 0 0 19.5-6.762V161.5a5 5 0 0 1-5 5H47a5 5 0 0 1-5-5v-105a5 5 0 0 1 5-5z"/><path stroke="#D9D9D9" stroke-linecap="round" stroke-width="5" d="m115.55 59.415.06 12.17a1 1 0 0 0 1 .994h12.239"/><circle cx="119" cy="68.5" r="24.5" stroke="#EAEAEA" stroke-width="5"/><path fill="#D6D3D1" d="M80 110.5H54a3 3 0 1 1 0-6h26a3 3 0 1 1 0 6"/><path fill="#D6D3D1" d="M106 136.5H54a3 3 0 1 1 0-6h52a3 3 0 1 1 0 6"/><path fill="#ECECEC" d="M93.6 123.5H53.4c-1.325 0-2.4-1.343-2.4-3s1.075-3 2.4-3h40.2c1.326 0 2.4 1.343 2.4 3s-1.075 3-2.4 3"/></svg>
